src/icons/home.svg

<svg width="32" height="32" viewBox="0 0 32 32" fill="none" xmlns="http://www.w3.org/2000/svg"><path d="M24.5852 25.2658C24.2883 26.8243 22.9257 27.9519 21.3392 27.9519H10.6401C9.05354 27.9519 7.69094 26.8243 7.39408 25.2658L4.98096 12.5969L15.9001 4.52225L26.9988 12.5941L24.5852 25.2658Z" fill="#FFC800"/><path opacity="0.5" fill-rule="evenodd" clip-rule="evenodd" d="M13.1558 23.1111C13.1558 22.522 13.6333 22.0444 14.2224 22.0444H18.4891C19.0782 22.0444 19.5558 22.522 19.5558 23.1111C19.5558 23.7002 19.0782 24.1778 18.4891 24.1778H14.2224C13.6333 24.1778 13.1558 23.7002 13.1558 23.1111Z" fill="#945151"/><path d="M19.4785 16.2998C19.4785 18.2208 17.9212 19.778 16.0002 19.778C14.0792 19.778 12.522 18.2208 12.522 16.2998C12.522 14.3788 14.0792 12.8215 16.0002 12.8215C17.9212 12.8215 19.4785 14.3788 19.4785 16.2998Z" fill="#945151"/><path d="M16.1685 2.84462C16.6431 2.84231 17.1233 2.98589 17.5361 3.28558L17.5368 3.2861L29.9455 12.2319C30.9781 12.9822 31.207 14.4275 30.4568 15.4601C29.7067 16.4924 28.262 16.7215 27.2294 15.9719L27.2286 15.9714L16.1602 7.99185L5.09208 15.9712L5.09121 15.9719C4.05865 16.7213 2.61395 16.4923 1.86391 15.4599C1.11367 14.4273 1.34258 12.982 2.3752 12.2318L2.37679 12.2306L14.7839 3.28596L14.7846 3.28544C15.2022 2.98229 15.6887 2.83889 16.1685 2.84462Z" fill="#FF4B4B"/></svg>

<svg xmlns="http://www.w3.org/2000/svg" width="29.476" height="25.107" viewBox="0 0 29.476 25.107">
    <g id="home" transform="translate(-1.422 -2.844)">
        <path id="Path_478" data-name="Path 478" d="M24.585,25.266a3.3,3.3,0,0,1-3.246,2.686H10.64a3.3,3.3,0,0,1-3.246-2.686L4.981,12.6,15.9,4.522,27,12.594Z" fill="#eddfac"/>
        <path id="Path_479" data-name="Path 479" d="M13.156,23.111a1.067,1.067,0,0,1,1.067-1.067h4.267a1.067,1.067,0,0,1,0,2.133H14.222A1.067,1.067,0,0,1,13.156,23.111Z" fill="#945151" fill-rule="evenodd" opacity="0.5"/>
        <path id="Path_480" data-name="Path 480" d="M19.479,16.3A3.478,3.478,0,1,1,16,12.821,3.478,3.478,0,0,1,19.479,16.3Z" fill="#945151"/>
        <path id="Path_481" data-name="Path 481" d="M16.169,2.845a2.3,2.3,0,0,1,1.368.441h0l12.409,8.946a2.311,2.311,0,0,1-2.716,3.74h0L16.16,7.992,5.092,15.971h0a2.311,2.311,0,0,1-2.716-3.74h0L14.784,3.286h0A2.3,2.3,0,0,1,16.169,2.845Z" fill="#4b97ff"/>
    </g>
</svg>
